X: 7481
T: Coach House, The
R: reel
M: 4/4
K: Aminor
|:AeeA eeAe|eAeA dddA|AeeA eeAB|gedB AAAB:|
|:AaaA g2 Aa|aA g2 edde|AaaA g2 Aa|aAdB AAAB:|

